lib/assets/icons/svg/outlined-communication-message.svg

<svg xmlns="http://www.w3.org/2000/svg" viewBox="0 0 24 24"><path d="M5.405 20.25a.468.468 0 0 1-.28-.09.489.489 0 0 1-.22-.46l.23-2.79a7.39 7.39 0 0 1-2.23-5.23c0-4.38 4.08-7.93 9.09-7.93s9.1 3.55 9.1 7.92-4.08 7.92-9.09 7.92a10.675 10.675 0 0 1-3.86-.75l-2.51 1.3a.498.498 0 0 1-.23.11zm6.59-15.5c-4.46 0-8.09 3.1-8.09 6.92a6.374 6.374 0 0 0 2.08 4.58.47.47 0 0 1 .16.41l-.17 2.14 1.91-1a.498.498 0 0 1 .43 0c1.159.5 2.408.759 3.67.76 4.47 0 8.1-3.1 8.1-6.92s-3.63-6.89-8.09-6.89z" clip-path="url(#a)"/></svg>

<svg viewBox="0 0 24 24" xmlns="http://www.w3.org/2000/svg">
  <path  d="M 5.405 20.25 C 5.304 20.251 5.206 20.219 5.125 20.16 C 4.971 20.06 4.886 19.882 4.905 19.7 L 5.135 16.91 C 3.724 15.534 2.921 13.651 2.905 11.68 C 2.905 7.3 6.985 3.75 11.995 3.75 C 17.005 3.75 21.095 7.3 21.095 11.67 C 21.095 16.04 17.015 19.59 12.005 19.59 C 10.683 19.581 9.374 19.327 8.145 18.84 L 5.635 20.14 C 5.569 20.196 5.49 20.234 5.405 20.25 Z M 11.995 4.75 C 7.535 4.75 3.905 7.85 3.905 11.67 C 3.941 13.417 4.693 15.073 5.985 16.25 C 6.103 16.352 6.163 16.505 6.145 16.66 L 5.975 18.8 L 7.885 17.8 C 8.021 17.735 8.179 17.735 8.315 17.8 C 9.474 18.3 10.723 18.559 11.985 18.56 L 11.985 18.56 C 16.455 18.56 20.085 15.46 20.085 11.64 C 20.085 7.82 16.455 4.75 11.995 4.75 Z" style="clip-path: url(#a);"/>
</svg>
